file/moma.svg

<svg clip-rule="evenodd" fill-rule="evenodd" stroke-linejoin="round" stroke-miterlimit="1.41421" viewBox="0 0 560 400" xmlns="http://www.w3.org/2000/svg"><path d="m201.942 142.728c-25.968-4.046-38.889-20.264-38.889-48.813 0-34.422 17.61-53.034 50.181-53.034 25.602 0 39.731 10.216 45.494 32.894 1.806 7.108 1.558 26.747-.446 35.242-4.086 17.32-13.507 28.044-28.227 32.131-4.809 1.336-23.09 2.363-28.113 1.58zm16.152-27.837c3.758-4.068 5.572-18.819 4.052-32.953-1.086-10.103-3.035-13.938-7.676-15.104-4.849-1.219-8.281.762-11.058 6.383-1.874 3.792-2.354 6.447-2.703 14.937-.832 20.258 2.535 28.851 11.306 28.851 3.074 0 4.623-.538 6.079-2.114zm-218.094-43.936v-70.485h24.833c13.658 0 25.105-.106 25.439-.235.333-.129 5.904 20.588 12.38 46.039s12.037 45.962 12.358 45.581c.32-.382 5.315-19.514 11.098-42.515 5.783-23.002 10.93-43.408 11.437-45.346l.921-3.524h53.342v140.97h-19.201-19.2l-.244-41.586-.244-41.586-11.611 38.532c-6.387 21.192-11.994 39.906-12.461 41.586l-.849 3.054h-15.816-15.816l-1.455-4.934c-.8-2.713-6.208-21.216-12.018-41.116l-10.564-36.182-.244 41.116-.244 41.116h-15.92-15.921zm272.692.029v-70.456l25.775-.264 25.775-.264.883 2.819c.485 1.551 5.823 22.395 11.861 46.321 6.038 23.925 11.262 43.167 11.61 42.761.347-.407 5.403-19.771 11.235-43.031 5.833-23.26 10.982-43.666 11.442-45.346l.838-3.054h53.326v140.97h-19.2-19.201l-.244-41.586-.244-41.586-7.801 25.844c-4.291 14.215-9.953 32.929-12.582 41.587l-4.781 15.741h-15.729-15.728l-1.313-4.464c-.723-2.455-6.116-20.921-11.985-41.036l-10.67-36.573-.245 41.037-.244 41.036h-16.389-16.389zm160.825 66.482c1.901-5.256 30.425-89.253 39.421-116.085l7.011-20.911h38.964l9.479 27.959c20.828 61.43 37.608 111.522 37.608 112.265 0 .431-8.926.67-19.836.53l-19.835-.253-.728-2.35c-.399-1.292-2.25-7.319-4.112-13.392l-3.385-11.043h-20.871-20.872l-4.19 13.392-4.189 13.393-17.958.255-17.958.255zm73.926-58.288c-.666-2.196-2.993-9.914-5.171-17.151-2.178-7.236-4.178-13.525-4.445-13.976-.397-.669-9.081 25.427-10.984 33.007-.528 2.104-.477 2.115 10.64 2.115h11.171z" fill-rule="nonzero" transform="matrix(.636042 0 0 .636042 100 154.523)"/></svg>

<?xml version="1.0" encoding="UTF-8" standalone="no"?>
<!DOCTYPE svg PUBLIC "-//W3C//DTD SVG 1.1//EN" "http://www.w3.org/Graphics/SVG/1.1/DTD/svg11.dtd">
<svg width="100%" height="100%" viewBox="0 0 560 400" version="1.1" xmlns="http://www.w3.org/2000/svg" xmlns:xlink="http://www.w3.org/1999/xlink" xml:space="preserve" xmlns:serif="http://www.serif.com/" style="fill-rule:evenodd;clip-rule:evenodd;stroke-linejoin:round;stroke-miterlimit:1.41421;">
    <g id="path3260" transform="matrix(0.636042,0,0,0.636042,100,154.523)">
        <path d="M201.942,142.728C175.974,138.682 163.053,122.464 163.053,93.915C163.053,59.493 180.663,40.881 213.234,40.881C238.836,40.881 252.965,51.097 258.728,73.775C260.534,80.883 260.286,100.522 258.282,109.017C254.196,126.337 244.775,137.061 230.055,141.148C225.246,142.484 206.965,143.511 201.942,142.728ZM218.094,114.891C221.852,110.823 223.666,96.072 222.146,81.938C221.06,71.835 219.111,68 214.47,66.834C209.621,65.615 206.189,67.596 203.412,73.217C201.538,77.009 201.058,79.664 200.709,88.154C199.877,108.412 203.244,117.005 212.015,117.005C215.089,117.005 216.638,116.467 218.094,114.891ZM0,70.955L0,0.47L24.833,0.47C38.491,0.47 49.938,0.364 50.272,0.235C50.605,0.106 56.176,20.823 62.652,46.274C69.128,71.725 74.689,92.236 75.01,91.855C75.33,91.473 80.325,72.341 86.108,49.34C91.891,26.338 97.038,5.932 97.545,3.994L98.466,0.47L151.808,0.47L151.808,141.44L132.607,141.44L113.407,141.44L113.163,99.854L112.919,58.268L101.308,96.8C94.921,117.992 89.314,136.706 88.847,138.386L87.998,141.44L72.182,141.44L56.366,141.44L54.911,136.506C54.111,133.793 48.703,115.29 42.893,95.39L32.329,59.208L32.085,100.324L31.841,141.44L15.921,141.44L0,141.44L0,70.955ZM272.692,70.984L272.692,0.528L298.467,0.264L324.242,0L325.125,2.819C325.61,4.37 330.948,25.214 336.986,49.14C343.024,73.065 348.248,92.307 348.596,91.901C348.943,91.494 353.999,72.13 359.831,48.87C365.664,25.61 370.813,5.204 371.273,3.524L372.111,0.47L425.437,0.47L425.437,141.44L406.237,141.44L387.036,141.44L386.792,99.854L386.548,58.268L378.747,84.112C374.456,98.327 368.794,117.041 366.165,125.699L361.384,141.44L345.655,141.44L329.927,141.44L328.614,136.976C327.891,134.521 322.498,116.055 316.629,95.94L305.959,59.367L305.714,100.404L305.47,141.44L289.081,141.44L272.692,141.44L272.692,70.984ZM433.517,137.466C435.418,132.21 463.942,48.213 472.938,21.381L479.949,0.47L518.913,0.47L528.392,28.429C549.22,89.859 566,139.951 566,140.694C566,141.125 557.074,141.364 546.164,141.224L526.329,140.971L525.601,138.621C525.202,137.329 523.351,131.302 521.489,125.229L518.104,114.186L497.233,114.186L476.361,114.186L472.171,127.578L467.982,140.971L450.024,141.226L432.066,141.481L433.517,137.466ZM507.443,79.178C506.777,76.982 504.45,69.264 502.272,62.027C500.094,54.791 498.094,48.502 497.827,48.051C497.43,47.382 488.746,73.478 486.843,81.058C486.315,83.162 486.366,83.173 497.483,83.173L508.654,83.173L507.443,79.178Z" style="fill-rule:nonzero;"/>
    </g>
</svg>
